assets/static/logos/ultimate-mostoles-inverse.svg

<svg width="543" height="618" viewBox="0 0 543 618" fill="none" xmlns="http://www.w3.org/2000/svg">
<g clip-path="url(#clip0_486_26231)">
<path d="M516.531 58.6292L515.13 53.1134L509.917 50.8415C432.279 17.1154 351.952 0 271.159 0C190.365 0 110.039 17.1154 32.4259 50.8541L27.2131 53.126L25.812 58.6419C9.87041 121.348 0.22719 183.978 -5.97909e-06 226.174C-0.21458 269.101 6.00807 310.994 18.5039 350.665C30.5831 389.01 48.5695 425.374 71.9833 458.747C94.9428 491.501 123.216 521.504 155.995 547.909C190.933 576.157 232.308 601.628 266.678 616.03L271.159 617.911L275.639 616.03C309.997 601.628 351.372 576.157 386.297 547.922C419.089 521.504 447.362 491.501 470.334 458.747C493.735 425.374 511.734 389.01 523.813 350.665C536.309 310.994 542.532 269.114 542.317 226.174C542.09 183.991 532.447 121.348 516.518 58.6292H516.531ZM183.6 519.371C157.636 494.013 135.308 465.26 117.195 433.932C98.7799 402.087 84.5801 367.301 75.0631 330.659C65.1927 292.667 60.308 252.63 60.472 211.608C60.6361 174.815 67.2374 117.852 79.5439 57.1146C94.3622 51.8007 109.256 47.1053 124.226 43.0411C123.115 53.1008 121.664 66.8462 120.78 76.3506C122.333 79.0012 123.936 81.5256 125.917 83.949C128.303 81.9169 130.335 79.7332 132.354 77.436C133.301 67.3384 134.866 52.4445 136.002 42.3216C136.002 42.3216 136.166 40.9206 136.28 39.8856C180.823 28.7908 225.921 23.1866 271.146 23.1866C316.371 23.1866 361.469 28.7782 406.012 39.8856C407.11 49.5288 408.41 61.709 409.269 70.4056L409.609 73.9145C409.635 74.4951 409.862 75.9971 409.811 76.5525C409.761 76.8554 409.66 77.1584 409.875 77.436C410.342 77.9788 410.834 78.5342 411.313 79.0769C412.904 80.7935 414.545 82.4344 416.375 83.9364C417.915 82.1314 419.227 80.2129 420.477 78.2186C420.856 77.5875 421.234 76.9564 421.588 76.3253C421.739 76.0098 421.588 75.7321 421.487 75.4418C421.335 74.899 421.26 73.3591 421.197 72.7911L420.856 69.257C420.111 61.8226 419.063 51.826 418.091 43.0284C433.061 47.1054 447.955 51.8007 462.773 57.1146C475.08 117.852 481.681 174.815 481.845 211.608C482.009 252.642 477.125 292.667 467.254 330.659C457.737 367.301 443.537 402.087 425.122 433.932C407.009 465.26 384.668 494.013 358.718 519.371C334.319 543.289 301.287 569.455 271.159 584.778C241.03 569.455 207.998 543.289 183.6 519.371ZM90.9668 445.431C68.9288 414.002 51.9901 379.771 40.6302 343.697C28.8665 306.324 22.9973 266.817 23.1993 226.3C23.4012 187.702 32.4386 128.214 46.8908 69.8881C55.6126 66.1898 64.3723 62.7062 73.1698 59.4497C60.674 120.54 53.9591 177.731 53.795 214.776C53.6183 256.416 58.6671 297.059 68.8404 335.619C78.6604 372.816 93.3145 408.108 112.311 440.445C131.004 472.253 154.039 501.422 180.823 527.171C202.861 548.426 231.728 571.436 259.433 587.264C230.655 573.153 198.532 552.478 170.561 529.872C139.461 504.817 112.677 476.405 90.9668 445.443V445.431ZM501.7 343.685C490.34 379.771 473.401 413.989 451.363 445.431C429.653 476.393 402.869 504.805 371.756 529.872C343.811 552.465 311.688 573.14 282.91 587.252C310.615 571.424 339.482 548.414 361.52 527.158C388.304 501.409 411.339 472.24 430.032 440.432C449.028 408.108 463.682 372.804 473.502 335.607C483.676 297.046 488.724 256.416 488.548 214.764C488.383 177.718 481.669 120.528 469.173 59.4371C477.958 62.6935 486.717 66.1772 495.452 69.8755C509.904 128.214 518.941 187.702 519.143 226.287C519.345 266.817 513.476 306.311 501.712 343.685H501.7Z" fill="white"/>
<path d="M441.379 329.662C444.105 325.585 437.794 347.509 428.808 366.695C420.01 385.489 408.776 401.973 407.451 403.904C407.375 404.018 407.237 404.081 407.085 404.043C405.015 403.563 389.919 399.133 400.976 374.053C410.342 352.823 390.247 341.097 381.387 337.121C381.008 336.945 381.197 336.377 381.601 336.465C388.367 337.879 402.087 340.416 412.121 340.037C425.955 339.507 435.8 337.992 441.366 329.662H441.379Z" fill="white"/>
<path d="M279.287 196.474C249.222 222.488 268.079 275.337 328.109 285.459C328.917 285.598 329.296 286.558 328.791 287.214C324.234 293.146 321.596 307.598 329.46 321.407C340.921 341.514 367.856 345.894 372.526 361.28C400.181 452.322 260.026 401.329 265.719 545.826C265.756 546.899 264.62 547.152 263.737 546.533C152.752 469.867 230.528 385.161 270.818 370.671C271.84 370.305 271.777 368.853 270.73 368.575C260.316 365.773 236.827 363.262 216.884 378.622C191.287 398.338 183.6 423.683 184.382 461.196C184.408 462.13 183.196 462.584 182.439 462.016C176.595 457.649 138.211 432.14 144.648 379.418C148.22 350.223 167.582 313.834 227.6 302.701C228.597 302.512 228.824 301.199 227.954 300.669C218.197 294.774 184.938 291.064 152.638 312.773C122.08 333.309 116.829 373.384 115.719 384.479C115.618 385.514 114.267 385.842 113.699 384.971C95.7253 357.948 107.047 303.282 126.637 267.12C151.262 221.68 213.375 188.409 278.631 194.568C279.59 194.657 279.994 195.856 279.262 196.487L279.287 196.474Z" fill="white"/>
<path d="M446.554 265.466C443.563 263.156 430.171 252.781 423.027 245.599C416.047 238.581 408.12 229.266 396.533 220.052C391.964 216.417 393.807 209.992 383.974 200.109C374.142 190.226 368.235 185.657 362.088 179.472C359.084 176.456 357.935 170.826 357.544 165.866C357.077 159.858 330.76 144.56 272.244 144.56C213.729 144.56 177.983 156.652 166.409 166.989C165.916 167.431 166.409 168.214 167.014 167.948C175.383 164.2 190.1 158.709 208.667 159.694C209.122 159.719 209.172 160.375 208.73 160.464C199.201 162.319 162.584 168.605 139.309 200.412C122.004 224.066 115.416 239.742 113.585 246.735C113.346 247.631 114.507 248.212 115.1 247.492C126.712 233.28 183.676 175.711 257.489 177.667C284.879 178.387 301.944 182.906 320.006 193.18C320.347 193.369 320.22 193.899 319.817 193.899C313.72 193.937 296.314 195.187 290.243 215.369C283.983 236.133 293.941 256.517 327.213 268.104C336.667 271.26 348.203 273.241 358.465 272.938C359.589 272.9 360.321 274.1 359.765 275.071C356.269 281.244 348.254 297.11 353.113 305.15C359.399 315.563 381.589 329.195 423.292 320.852C448.523 315.803 454.809 306.462 453.9 292.502C453.395 284.778 435.131 294.383 424.945 284.652C423.14 282.922 420.187 271.096 422.042 272.055C435.321 275.198 450.808 278.164 457.018 275.652C459.429 274.529 449.306 267.624 446.542 265.491L446.554 265.466ZM381.096 235.552C373.649 230.958 350.942 217.679 331.063 213.514C330.621 213.426 330.697 212.782 331.139 212.782C348.645 212.82 366.24 213.691 370.443 213.905C370.633 213.905 370.936 216.467 374.154 223.17C377.373 229.872 381.286 235.666 381.096 235.552Z" fill="white"/>
<path d="M352.836 83.5956C352.735 83.5956 352.646 83.6082 352.545 83.6082C346.424 83.6082 341.463 79.0012 341.463 73.3086C341.463 69.2696 343.975 65.7733 347.623 64.0946C348.14 63.8547 348.38 63.2741 348.115 62.7945C346.941 60.6488 344.985 58.9448 342.587 58.0234C342.637 57.7709 342.675 57.5185 342.675 57.2408C342.675 55.0572 340.769 53.2775 338.409 53.2775C336.048 53.2775 334.142 55.0572 334.142 57.2408C334.142 57.2913 334.142 57.3418 334.142 57.3797C334.155 57.7583 333.953 58.1117 333.574 58.2884C331.467 59.2603 329.75 60.8381 328.69 62.7945C328.425 63.2741 328.652 63.8547 329.182 64.0946C332.83 65.7733 335.342 69.2696 335.342 73.3086C335.342 78.9885 330.381 83.6082 324.259 83.6082C324.158 83.6082 324.07 83.6082 323.969 83.5956C323.919 84.0626 323.881 84.5422 323.881 85.0345C323.881 86.8773 324.777 90.7396 326.128 95.4981C326.304 96.1419 325.749 96.7603 325.017 96.7225C322.732 96.5962 320.448 96.47 318.176 96.3564C317.494 96.3186 317.014 95.7253 317.204 95.1195C319.387 87.988 321.041 81.778 321.041 79.2662C321.041 78.7866 321.016 78.3069 320.952 77.8273C320.852 77.8273 320.751 77.8399 320.662 77.8399C314.54 77.8399 309.58 73.2329 309.58 67.5404C309.58 63.5013 312.092 60.005 315.74 58.3263C316.257 58.0865 316.497 57.5059 316.232 57.0262C315.058 54.8805 313.102 53.1765 310.703 52.2551C310.754 52.0027 310.792 51.7502 310.792 51.4852C310.792 49.3016 308.886 47.5219 306.526 47.5219C304.165 47.5219 302.259 49.3016 302.259 51.4852C302.259 51.5357 302.259 51.5862 302.259 51.624C302.272 52.0027 302.07 52.3561 301.691 52.5328C299.583 53.5047 297.867 55.0824 296.807 57.0389C296.541 57.5185 296.769 58.0991 297.299 58.3389C300.947 60.0177 303.458 63.514 303.458 67.553C303.458 73.2329 298.498 77.8526 292.376 77.8526C292.275 77.8526 292.174 77.8526 292.086 77.8399C292.035 78.3069 291.998 78.7866 291.998 79.2788C291.998 81.6897 293.512 87.4832 295.557 94.2359C295.746 94.867 295.216 95.4981 294.497 95.4729C291.177 95.3845 287.845 95.3214 284.525 95.2709C283.819 95.2709 283.314 94.6525 283.503 94.034C286.027 85.8171 287.921 78.6604 287.921 75.7573C287.921 75.2019 287.883 74.6466 287.82 74.1038C287.706 74.1038 287.592 74.1164 287.479 74.1164C280.423 74.1164 274.693 68.8026 274.693 62.2391C274.693 57.5311 277.646 53.4668 281.925 51.5483C282.455 51.3085 282.683 50.7279 282.43 50.2482C281.105 47.7364 278.845 45.7422 276.069 44.644C275.665 44.48 275.412 44.1139 275.412 43.71C275.412 41.5138 273.506 39.7467 271.146 39.7467C268.786 39.7467 266.88 41.5264 266.88 43.71C266.88 44.1139 266.627 44.4926 266.223 44.644C263.447 45.7422 261.187 47.7364 259.862 50.2482C259.61 50.7279 259.837 51.3085 260.367 51.5483C264.646 53.4668 267.599 57.5311 267.599 62.2391C267.599 68.8026 261.881 74.1164 254.813 74.1164C254.7 74.1164 254.586 74.1164 254.472 74.1038C254.409 74.6466 254.371 75.2019 254.371 75.7573C254.371 78.6477 256.277 85.8044 258.789 94.034C258.978 94.6525 258.474 95.2709 257.767 95.2709C254.447 95.3214 251.115 95.3845 247.795 95.4729C247.076 95.4855 246.533 94.867 246.735 94.2359C248.78 87.4832 250.294 81.6897 250.294 79.2788C250.294 78.7992 250.269 78.3196 250.206 77.8399C250.105 77.8399 250.017 77.8526 249.916 77.8526C243.794 77.8526 238.834 73.2455 238.834 67.553C238.834 63.514 241.345 60.0177 244.993 58.3389C245.511 58.0991 245.751 57.5185 245.485 57.0389C244.425 55.0951 242.709 53.5047 240.601 52.5328C240.235 52.3561 240.02 52.0027 240.033 51.624C240.033 51.5735 240.033 51.5357 240.033 51.4852C240.033 49.3016 238.127 47.5219 235.767 47.5219C233.406 47.5219 231.5 49.3016 231.5 51.4852C231.5 51.7502 231.526 52.0153 231.589 52.2551C229.19 53.1891 227.221 54.8931 226.06 57.0262C225.795 57.5059 226.022 58.0865 226.552 58.3263C230.2 60.005 232.712 63.5013 232.712 67.5404C232.712 73.2203 227.752 77.8399 221.63 77.8399C221.529 77.8399 221.428 77.8399 221.34 77.8273C221.289 78.2943 221.251 78.774 221.251 79.2662C221.251 81.778 222.905 87.988 225.088 95.1195C225.278 95.7253 224.798 96.3186 224.116 96.3564C221.832 96.47 219.547 96.5962 217.275 96.7225C216.543 96.7603 215.988 96.1419 216.165 95.4981C217.515 90.7396 218.411 86.8773 218.411 85.0345C218.411 84.5549 218.373 84.0752 218.323 83.5956C218.222 83.5956 218.134 83.6082 218.033 83.6082C211.911 83.6082 206.95 79.0012 206.95 73.3086C206.95 69.2696 209.462 65.7733 213.11 64.0946C213.628 63.8547 213.867 63.2741 213.602 62.7945C212.542 60.8507 210.825 59.2603 208.718 58.2884C208.352 58.1117 208.137 57.7583 208.15 57.3797C208.15 57.3292 208.15 57.2913 208.15 57.2408C208.15 55.0572 206.244 53.2775 203.883 53.2775C201.523 53.2775 199.617 55.0572 199.617 57.2408C199.617 57.5059 199.642 57.7709 199.705 58.0234C197.307 58.9574 195.338 60.6614 194.177 62.7945C193.912 63.2741 194.139 63.8547 194.669 64.0946C198.317 65.7733 200.829 69.2696 200.829 73.3086C200.829 78.9885 195.868 83.6082 189.747 83.6082C189.646 83.6082 189.545 83.6082 189.456 83.5956C189.406 84.0752 189.381 84.5549 189.381 85.0345C189.381 85.2617 189.381 85.5772 189.381 85.9938C189.381 110.039 198.62 128.126 198.62 128.126C234.668 120.982 282.216 120.528 343.609 128.126C343.609 128.126 352.848 110.026 352.848 85.9938C352.848 85.5899 352.848 85.2617 352.848 85.0345C352.848 84.5549 352.81 84.0752 352.773 83.5956H352.836Z" fill="white"/>
<path d="M137.365 102.011C137.365 101.67 137.226 101.38 136.961 101.153C136.696 100.926 135.977 100.774 134.828 100.673V99.7896H153.534V100.673C152.385 100.774 151.679 100.938 151.401 101.153C151.123 101.38 150.997 101.658 150.997 102.011V121.891C150.997 125.16 150.341 127.899 149.041 130.12C147.741 132.342 145.948 134.121 143.676 135.459C141.404 136.797 138.741 137.719 135.687 138.236C132.632 138.754 129.376 139.019 125.917 139.019C122.459 139.019 119.215 138.754 116.148 138.236C113.093 137.719 110.43 136.785 108.158 135.459C105.886 134.121 104.106 132.342 102.794 130.12C101.494 127.899 100.837 125.147 100.837 121.891V102.011C100.837 101.67 100.698 101.38 100.433 101.153C100.156 100.926 99.4488 100.774 98.3002 100.673V99.7896H117.006V100.673C115.857 100.774 115.138 100.938 114.873 101.153C114.608 101.367 114.469 101.658 114.469 102.011V121.891C114.469 124.756 115.466 126.813 117.46 128.05C119.455 129.287 122.269 129.906 125.905 129.906C129.54 129.906 132.354 129.287 134.349 128.05C136.343 126.813 137.34 124.769 137.34 121.891V102.011H137.365Z" fill="white"/>
<path d="M427.722 137.908C428.757 137.807 429.388 137.643 429.641 137.428C429.893 137.214 430.007 136.924 430.007 136.57V109.281L429.843 109.13L415.34 137.908L401.001 108.84H400.837V136.583C400.837 136.924 400.963 137.214 401.203 137.441C401.443 137.668 402.087 137.82 403.122 137.921V138.804H388.783V137.921C389.818 137.82 390.449 137.656 390.702 137.441C390.954 137.226 391.068 136.936 391.068 136.583V102.024C391.068 101.683 390.942 101.393 390.702 101.165C390.462 100.938 389.818 100.787 388.783 100.686V99.8022H410.039V100.686C408.739 100.736 408.082 101.178 408.082 102.024C408.082 102.074 408.246 102.465 408.575 103.21C408.903 103.955 409.319 104.864 409.837 105.949C410.354 107.035 410.922 108.208 411.553 109.471C412.172 110.733 412.778 111.945 413.346 113.106C413.914 114.267 414.419 115.289 414.848 116.186C415.277 117.082 415.58 117.675 415.744 117.965C416.665 116.085 417.612 114.254 418.596 112.475C419.568 110.695 420.452 109.067 421.247 107.577C422.03 106.088 422.673 104.864 423.166 103.867C423.658 102.882 423.898 102.264 423.898 102.011C423.898 101.165 423.241 100.724 421.941 100.673V99.7896H444.017V100.673C442.982 100.774 442.351 100.938 442.099 101.153C441.846 101.367 441.733 101.658 441.733 102.011V136.57C441.733 136.911 441.859 137.201 442.099 137.428C442.338 137.656 442.982 137.807 444.017 137.908V138.792H427.722V137.908Z" fill="white"/>
</g>
<defs>
<clipPath id="clip0_486_26231">
<rect width="542.33" height="617.911" fill="white"/>
</clipPath>
</defs>
</svg>

<svg xmlns="http://www.w3.org/2000/svg" width="543" height="618" fill="none"><g fill="#fff" clip-path="url(#a)"><path d="m516.531 58.63-1.401-5.517-5.213-2.271C432.279 17.115 351.952 0 271.159 0c-80.794 0-161.12 17.115-238.733 50.854l-5.213 2.272-1.401 5.516C9.87 121.348.227 183.978 0 226.174c-.215 42.927 6.008 84.82 18.504 124.491 12.08 38.345 30.065 74.709 53.48 108.082 22.959 32.754 51.232 62.757 84.011 89.162 34.938 28.248 76.313 53.719 110.683 68.121l4.481 1.881 4.48-1.881c34.358-14.402 75.733-39.873 110.658-68.108 32.792-26.418 61.065-56.421 84.037-89.175 23.401-33.373 41.4-69.737 53.479-108.082 12.496-39.671 18.719-81.551 18.504-124.491-.227-42.183-9.87-104.826-25.799-167.545h.013ZM183.6 519.37a397.607 397.607 0 0 1-66.405-85.439C98.78 402.087 84.58 367.301 75.063 330.659c-9.87-37.992-14.755-78.029-14.591-119.051.164-36.793 6.765-93.756 19.072-154.493a591.327 591.327 0 0 1 44.682-14.074c-1.111 10.06-2.562 23.805-3.446 33.31 1.553 2.65 3.156 5.175 5.137 7.598 2.386-2.032 4.418-4.216 6.437-6.513.947-10.098 2.512-24.992 3.648-35.114 0 0 .164-1.401.278-2.436 44.543-11.095 89.641-16.7 134.866-16.7 45.225 0 90.323 5.592 134.866 16.7a2287.524 2287.524 0 0 1 3.257 30.52l.34 3.508c.026.581.253 2.083.202 2.638-.05.303-.151.606.064.884.467.543.959 1.098 1.438 1.64 1.591 1.718 3.232 3.358 5.062 4.86 1.54-1.805 2.852-3.723 4.102-5.717a74.5 74.5 0 0 0 1.111-1.894c.151-.315 0-.593-.101-.883-.152-.543-.227-2.083-.29-2.65l-.341-3.535a2794.838 2794.838 0 0 0-2.765-26.229 597.294 597.294 0 0 1 44.682 14.087c12.307 60.737 18.908 117.7 19.072 154.493.164 41.034-4.72 81.059-14.591 119.051-9.517 36.642-23.717 71.428-42.132 103.273a398.044 398.044 0 0 1-66.404 85.439c-24.399 23.918-57.431 50.084-87.559 65.407-30.129-15.323-63.161-41.489-87.559-65.407Zm-92.633-73.94c-22.038-31.429-38.977-65.66-50.337-101.734-11.764-37.373-17.633-76.88-17.43-117.397.201-38.598 9.239-98.086 23.69-156.412A607.813 607.813 0 0 1 73.17 59.45C60.674 120.54 53.96 177.73 53.795 214.776c-.177 41.64 4.872 82.283 15.045 120.843 9.82 37.197 24.474 72.489 43.471 104.826 18.693 31.808 41.728 60.977 68.512 86.726 22.038 21.255 50.905 44.265 78.61 60.093-28.778-14.111-60.901-34.786-88.872-57.392-31.1-25.055-57.884-53.467-79.594-84.429v-.012ZM501.7 343.685c-11.36 36.086-28.299 70.304-50.337 101.746-21.71 30.962-48.494 59.374-79.607 84.441-27.945 22.593-60.068 43.268-88.846 57.38 27.705-15.828 56.572-38.838 78.61-60.094 26.784-25.749 49.819-54.918 68.512-86.726 18.996-32.324 33.65-67.628 43.47-104.825 10.174-38.561 15.222-79.191 15.046-120.843-.165-37.046-6.879-94.236-19.375-155.327a621.112 621.112 0 0 1 26.279 10.439c14.452 58.338 23.489 117.826 23.691 156.411.202 40.53-5.667 80.024-17.431 117.398h-.012Z"/><path d="M441.379 329.662c2.726-4.077-3.585 17.847-12.571 37.033-8.798 18.794-20.032 35.278-21.357 37.209a.334.334 0 0 1-.366.139c-2.07-.48-17.166-4.91-6.109-29.99 9.366-21.23-10.729-32.956-19.589-36.932-.379-.176-.19-.744.214-.656 6.766 1.414 20.486 3.951 30.52 3.572 13.834-.53 23.679-2.045 29.245-10.375h.013ZM279.287 196.474c-30.065 26.014-11.208 78.863 48.822 88.985a1.102 1.102 0 0 1 .682 1.755c-4.557 5.932-7.195 20.384.669 34.193 11.461 20.107 38.396 24.487 43.066 39.873 27.655 91.042-112.5 40.049-106.807 184.546.037 1.073-1.099 1.326-1.982.707-110.985-76.666-33.209-161.372 7.081-175.862 1.022-.366.959-1.818-.088-2.096-10.414-2.802-33.903-5.313-53.846 10.047-25.597 19.716-33.284 45.061-32.502 82.574.026.934-1.186 1.388-1.943.82-5.844-4.367-44.228-29.876-37.791-82.598 3.572-29.195 22.934-65.584 82.952-76.717.997-.189 1.224-1.502.354-2.032-9.757-5.895-43.016-9.605-75.316 12.104-30.558 20.536-35.809 60.611-36.919 71.706-.101 1.035-1.452 1.363-2.02.492-17.974-27.023-6.652-81.689 12.938-117.851 24.625-45.44 86.738-78.711 151.994-72.552.959.089 1.363 1.288.631 1.919l.025-.013Z"/><path d="M446.554 265.466c-2.991-2.31-16.383-12.685-23.527-19.867-6.98-7.018-14.907-16.333-26.494-25.547-4.569-3.635-2.726-10.06-12.559-19.943-9.832-9.883-15.739-14.452-21.886-20.637-3.004-3.016-4.153-8.646-4.544-13.606-.467-6.008-26.784-21.306-85.3-21.306-58.515 0-94.261 12.092-105.835 22.429-.493.442 0 1.225.605.959 8.369-3.748 23.086-9.239 41.653-8.254.455.025.505.681.063.77-9.529 1.855-46.146 8.141-69.421 39.948-17.305 23.654-23.893 39.33-25.724 46.323-.239.896.922 1.477 1.515.757 11.612-14.212 68.576-71.781 142.389-69.825 27.39.72 44.455 5.239 62.517 15.513.341.189.214.719-.189.719-6.097.038-23.503 1.288-29.574 21.47-6.26 20.764 3.698 41.148 36.97 52.735 9.454 3.156 20.99 5.137 31.252 4.834 1.124-.038 1.856 1.162 1.3 2.133-3.496 6.173-11.511 22.039-6.652 30.079 6.286 10.413 28.476 24.045 70.179 15.702 25.231-5.049 31.517-14.39 30.608-28.35-.505-7.724-18.769 1.881-28.955-7.85-1.805-1.73-4.758-13.556-2.903-12.597 13.279 3.143 28.766 6.109 34.976 3.597 2.411-1.123-7.712-8.028-10.476-10.161l.012-.025Zm-65.458-29.914c-7.447-4.594-30.154-17.873-50.033-22.038-.442-.088-.366-.732.076-.732 17.506.038 35.101.909 39.304 1.123.19 0 .493 2.562 3.711 9.265 3.219 6.702 7.132 12.496 6.942 12.382ZM352.836 83.596c-.101 0-.19.012-.291.012-6.121 0-11.082-4.607-11.082-10.3 0-4.038 2.512-7.535 6.16-9.213.517-.24.757-.82.492-1.3-1.174-2.146-3.13-3.85-5.528-4.772.05-.252.088-.505.088-.782 0-2.184-1.906-3.963-4.266-3.963-2.361 0-4.267 1.78-4.267 3.963v.139a.953.953 0 0 1-.568.908c-2.107.972-3.824 2.55-4.884 4.507-.265.48-.038 1.06.492 1.3 3.648 1.678 6.16 5.175 6.16 9.214 0 5.68-4.961 10.3-11.083 10.3-.101 0-.189 0-.29-.013-.05.467-.088.946-.088 1.438 0 1.843.896 5.706 2.247 10.464.176.644-.379 1.262-1.111 1.224a1305.1 1305.1 0 0 0-6.841-.366c-.682-.037-1.162-.63-.972-1.236 2.183-7.132 3.837-13.342 3.837-15.854 0-.48-.025-.96-.089-1.439-.1 0-.201.013-.29.013-6.122 0-11.082-4.607-11.082-10.3 0-4.039 2.512-7.535 6.16-9.214.517-.24.757-.82.492-1.3-1.174-2.146-3.13-3.85-5.529-4.77.051-.253.089-.506.089-.77 0-2.184-1.906-3.964-4.266-3.964-2.361 0-4.267 1.78-4.267 3.963v.139a.953.953 0 0 1-.568.909c-2.108.972-3.824 2.55-4.884 4.506-.266.48-.038 1.06.492 1.3 3.648 1.679 6.159 5.175 6.159 9.214 0 5.68-4.96 10.3-11.082 10.3-.101 0-.202 0-.29-.013-.051.467-.088.947-.088 1.439 0 2.41 1.514 8.204 3.559 14.957.189.631-.341 1.262-1.06 1.237-3.32-.088-6.652-.152-9.972-.202-.706 0-1.211-.618-1.022-1.237 2.524-8.217 4.418-15.374 4.418-18.277 0-.555-.038-1.11-.101-1.653-.114 0-.228.012-.341.012-7.056 0-12.786-5.313-12.786-11.877 0-4.708 2.953-8.772 7.232-10.69.53-.24.758-.821.505-1.3-1.325-2.513-3.585-4.507-6.361-5.605-.404-.164-.657-.53-.657-.934 0-2.196-1.906-3.963-4.266-3.963-2.36 0-4.266 1.78-4.266 3.963 0 .404-.253.783-.657.934-2.776 1.098-5.036 3.092-6.361 5.604-.252.48-.025 1.06.505 1.3 4.279 1.919 7.232 5.983 7.232 10.691 0 6.564-5.718 11.877-12.786 11.877-.113 0-.227 0-.341-.012a14.383 14.383 0 0 0-.101 1.653c0 2.89 1.906 10.047 4.418 18.277.189.618-.315 1.237-1.022 1.237-3.32.05-6.652.114-9.972.202-.719.013-1.262-.606-1.06-1.237 2.045-6.753 3.559-12.546 3.559-14.957 0-.48-.025-.96-.088-1.44-.101 0-.189.014-.29.014-6.122 0-11.082-4.607-11.082-10.3 0-4.039 2.511-7.535 6.159-9.214.518-.24.758-.82.492-1.3-1.06-1.944-2.776-3.534-4.884-4.506a.974.974 0 0 1-.568-.909v-.139c0-2.183-1.906-3.963-4.266-3.963-2.361 0-4.267 1.78-4.267 3.963 0 .265.026.53.089.77-2.399.934-4.368 2.638-5.529 4.771-.265.48-.038 1.06.492 1.3 3.648 1.679 6.16 5.175 6.16 9.214 0 5.68-4.96 10.3-11.082 10.3-.101 0-.202 0-.29-.013-.051.467-.089.947-.089 1.44 0 2.511 1.654 8.721 3.837 15.853.19.605-.29 1.199-.972 1.236-2.284.114-4.569.24-6.841.367-.732.037-1.287-.581-1.11-1.225 1.35-4.758 2.246-8.62 2.246-10.464 0-.48-.038-.959-.088-1.438-.101 0-.189.012-.29.012-6.122 0-11.083-4.607-11.083-10.3 0-4.038 2.512-7.535 6.16-9.213.518-.24.757-.82.492-1.3-1.06-1.944-2.777-3.535-4.884-4.507a.974.974 0 0 1-.568-.908v-.14c0-2.183-1.906-3.962-4.267-3.962-2.36 0-4.266 1.78-4.266 3.963 0 .265.025.53.088.782-2.398.934-4.367 2.638-5.528 4.771-.265.48-.038 1.06.492 1.3 3.648 1.68 6.16 5.176 6.16 9.215 0 5.68-4.961 10.3-11.082 10.3-.101 0-.202 0-.291-.013-.05.48-.075.959-.075 1.438v.96c0 24.045 9.239 42.132 9.239 42.132 36.048-7.144 83.596-7.598 144.989 0 0 0 9.239-18.1 9.239-42.132v-.96c0-.48-.038-.959-.075-1.438h.063ZM137.365 102.011c0-.341-.139-.631-.404-.858-.265-.227-.984-.379-2.133-.48v-.883h18.706v.883c-1.149.101-1.855.265-2.133.48a1.04 1.04 0 0 0-.404.858v19.88c0 3.269-.656 6.008-1.956 8.229-1.3 2.222-3.093 4.001-5.365 5.339-2.272 1.338-4.935 2.26-7.989 2.777-3.055.518-6.311.783-9.77.783-3.458 0-6.702-.265-9.769-.783-3.055-.517-5.718-1.451-7.99-2.777-2.272-1.338-4.052-3.117-5.364-5.339-1.3-2.221-1.957-4.973-1.957-8.229v-19.88c0-.341-.139-.631-.404-.858-.277-.227-.984-.379-2.133-.48v-.883h18.706v.883c-1.149.101-1.868.265-2.133.48a1.059 1.059 0 0 0-.404.858v19.88c0 2.865.997 4.922 2.991 6.159 1.995 1.237 4.809 1.856 8.445 1.856 3.635 0 6.449-.619 8.444-1.856 1.994-1.237 2.991-3.281 2.991-6.159v-19.88h.025ZM427.722 137.908c1.035-.101 1.666-.265 1.919-.48.252-.214.366-.504.366-.858v-27.289l-.164-.151-14.503 28.778-14.339-29.068h-.164v27.743c0 .341.126.631.366.858.24.227.884.379 1.919.48v.883h-14.339v-.883c1.035-.101 1.666-.265 1.919-.48.252-.215.366-.505.366-.858v-34.559c0-.341-.126-.631-.366-.859-.24-.227-.884-.378-1.919-.479v-.884h21.256v.884c-1.3.05-1.957.492-1.957 1.338 0 .05.164.441.493 1.186.328.745.744 1.654 1.262 2.739a204.685 204.685 0 0 0 1.716 3.522c.619 1.262 1.225 2.474 1.793 3.635.568 1.161 1.073 2.183 1.502 3.08.429.896.732 1.489.896 1.779a124.52 124.52 0 0 1 2.852-5.49 585.44 585.44 0 0 0 2.651-4.898 182.443 182.443 0 0 0 1.919-3.71c.492-.985.732-1.603.732-1.856 0-.846-.657-1.287-1.957-1.338v-.883h22.076v.883c-1.035.101-1.666.265-1.918.48-.253.214-.366.505-.366.858v34.559c0 .341.126.631.366.858.239.228.883.379 1.918.48v.884h-16.295v-.884Z"/></g><defs><clipPath id="a"><path fill="#fff" d="M0 0h542.33v617.911H0z"/></clipPath></defs></svg>
